assets/Mosque/Flat/mosque_flat.svg

<svg width="32" height="32" viewBox="0 0 32 32" fill="none" xmlns="http://www.w3.org/2000/svg">
<path d="M9 6.55011C9 8.43011 7.43 9.96011 5.5 9.96011C3.57 9.96011 2 8.43011 2 6.55011C2 4.67011 4.89999 1.99011 5.50999 2.00011C6.06999 1.98011 9 4.66011 9 6.55011ZM31 6.55011C31 8.43011 29.43 9.96011 27.5 9.96011C25.57 9.96011 24 8.43011 24 6.55011C24 4.67011 26.9 1.99011 27.51 2.00011C28.07 1.98011 31 4.66011 31 6.55011ZM22.46 11.9401L22.49 9.85007C22.49 8.02262 21.029 7.19848 19.5212 6.34789C18.4877 5.7649 17.4322 5.16948 16.81 4.23007C16.62 3.94007 16.24 3.94007 16.06 4.23007C15.4532 5.17575 14.4105 5.77299 13.389 6.35809C11.9693 7.17127 10.5905 7.961 10.48 9.63007V11.9401C10.48 13.0901 11.39 14.0101 12.5 14.0101H20.44C21.55 14.0101 22.46 13.0901 22.46 11.9401Z" fill="#FFB02E"/>
<path d="M24.51 9.05025V16.0502C24.51 16.5902 24.07 17.0302 23.52 17.0302H22.5C21.95 17.0302 21.51 16.5902 21.51 16.0502V14.8002H11.51V16.0502C11.51 16.5902 11.07 17.0402 10.52 17.0402H9.52002C8.97002 17.0402 8.53001 16.6002 8.53001 16.0602V8.87025C8.53001 8.46025 8.19001 8.13024 7.78001 8.13024H3.26001C2.85001 8.13024 2.51001 8.46025 2.51001 8.87025V29.0302H3.5L6 28.0001L8.5 29.0302H13.5L16.5 27.5001L19.5 29.0302L24.5 29.0001L27 28.0001L29.5 29.0302H30.51V9.06024C30.51 8.52024 30.07 8.08025 29.52 8.08025H25.5C24.95 8.07025 24.51 8.51025 24.51 9.05025Z" fill="#9B9B9B"/>
<path d="M2.55 9.02028H8.44C8.72 9.02028 8.93999 8.80027 8.92999 8.53027V8.52028C8.92999 8.25028 8.71 8.03027 8.44 8.03027H2.55C2.28 8.03027 2.06 8.25028 2.06 8.52028V8.53027C2.06 8.80027 2.28 9.02028 2.55 9.02028ZM30.46 9.02028H24.57C24.3 9.02028 24.08 8.80027 24.08 8.53027V8.52028C24.08 8.25028 24.3 8.03027 24.57 8.03027H30.46C30.73 8.03027 30.95 8.25028 30.95 8.52028V8.53027C30.95 8.80027 30.73 9.02028 30.46 9.02028ZM22.06 15.0203H10.92C10.68 15.0203 10.49 14.8303 10.49 14.5903V14.4503C10.49 14.2103 10.68 14.0203 10.92 14.0203H22.06C22.3 14.0203 22.49 14.2103 22.49 14.4503V14.5903C22.49 14.8303 22.3 15.0203 22.06 15.0203Z" fill="#6D4534"/>
<path d="M6.48999 16.0303H4.47998L4.48999 13.6903C4.48999 13.1403 5.15999 12.0303 5.48999 12.0303C5.82999 12.0303 6.49998 13.1503 6.49998 13.7003L6.48999 16.0303ZM28.49 16.0303H26.48L26.49 13.6903C26.49 13.1403 27.16 12.0303 27.49 12.0303C27.83 12.0303 28.5 13.1503 28.5 13.7003L28.49 16.0303ZM13.5 23.0003C13.5 21.6303 15.46 19.0503 16.45 19.0303C17.47 19.0403 19.47 21.6603 19.46 23.0203V29.0203H18.5H14.49H13.49L13.5 23.0003ZM8.52 26.0203C8.52 24.6503 7.49 22.0103 5.98 22.0303C4.52 22.0103 3.5 24.6303 3.5 26.0003L3.50999 29.0103H4.49001V29.0203H7.5H8.49001L8.52 26.0203ZM26.97 22.0303C28.48 22.0103 29.5 24.6503 29.5 26.0203L29.47 29.0203H28.5H25.49H24.49L24.5 26.0003C24.5 24.6303 25.52 22.0103 26.97 22.0303Z" fill="#212121"/>
</svg>

<svg xmlns="http://www.w3.org/2000/svg" width="32" height="32" fill="none"><path fill="#FFB02E" d="M9 6.55c0 1.88-1.57 3.41-3.5 3.41S2 8.43 2 6.55C2 4.67 4.9 1.99 5.51 2 6.07 1.98 9 4.66 9 6.55Zm22 0c0 1.88-1.57 3.41-3.5 3.41S24 8.43 24 6.55c0-1.88 2.9-4.56 3.51-4.55.56-.02 3.49 2.66 3.49 4.55Zm-8.54 5.39.03-2.09c0-1.827-1.461-2.652-2.969-3.502-1.033-.583-2.089-1.179-2.711-2.118-.19-.29-.57-.29-.75 0-.607.946-1.65 1.543-2.671 2.128-1.42.813-2.798 1.603-2.909 3.272v2.31c0 1.15.91 2.07 2.02 2.07h7.94c1.11 0 2.02-.92 2.02-2.07Z"/><path fill="#9B9B9B" d="M24.51 9.05v7c0 .54-.44.98-.99.98H22.5c-.55 0-.99-.44-.99-.98V14.8h-10v1.25c0 .54-.44.99-.99.99h-1c-.55 0-.99-.44-.99-.98V8.87c0-.41-.34-.74-.75-.74H3.26c-.41 0-.75.33-.75.74v20.16h.99L6 28l2.5 1.03h5l3-1.53 3 1.53 5-.03 2.5-1 2.5 1.03h1.01V9.06c0-.54-.44-.98-.99-.98H25.5a.97.97 0 0 0-.99.97Z"/><path fill="#6D4534" d="M2.55 9.02h5.89c.28 0 .5-.22.49-.49v-.01a.49.49 0 0 0-.49-.49H2.55a.49.49 0 0 0-.49.49v.01c0 .27.22.49.49.49Zm27.91 0h-5.89a.49.49 0 0 1-.49-.49v-.01c0-.27.22-.49.49-.49h5.89c.27 0 .49.22.49.49v.01c0 .27-.22.49-.49.49Zm-8.4 6H10.92c-.24 0-.43-.19-.43-.43v-.14c0-.24.19-.43.43-.43h11.14c.24 0 .43.19.43.43v.14c0 .24-.19.43-.43.43Z"/><path fill="#212121" d="M6.49 16.03H4.48l.01-2.34c0-.55.67-1.66 1-1.66.34 0 1.01 1.12 1.01 1.67l-.01 2.33Zm22 0h-2.01l.01-2.34c0-.55.67-1.66 1-1.66.34 0 1.01 1.12 1.01 1.67l-.01 2.33ZM13.5 23c0-1.37 1.96-3.95 2.95-3.97 1.02.01 3.02 2.63 3.01 3.99v6h-5.97L13.5 23Zm-4.98 3.02c0-1.37-1.03-4.01-2.54-3.99-1.46-.02-2.48 2.6-2.48 3.97l.01 3.01h.98v.01h4l.03-3Zm18.45-3.99c1.51-.02 2.53 2.62 2.53 3.99l-.03 3H24.49L24.5 26c0-1.37 1.02-3.99 2.47-3.97Z"/></svg>
